assets/icons/librescoot-gps-off.svg

<svg width="144" height="144" viewBox="0 0 144 144" fill="none" xmlns="http://www.w3.org/2000/svg">
    <g clip-path="url(#clip0_400_975)">
        <g>
            <path d="M116.25 104.4L109.65 97.8001C112.05 94.3001 113.975 90.3751 115.425 86.0251C116.875 81.6751 117.6 77.1001 117.6 72.3001C117.6 59.8001 113.125 49.0751 104.175 40.1251C95.225 31.1751 84.5 26.7001 72 26.7001C67.4 26.7001 62.825 27.4251 58.275 28.8751C53.725 30.3251 49.8 32.2501 46.5 34.6501L40.05 28.2001C43.65 25.2001 47.925 22.8501 52.875 21.1501C57.825 19.4501 62.7 18.3501 67.5 17.8501V6.6001H76.5V17.8501C90.2 19.2501 101.6 24.5001 110.7 33.6001C119.8 42.7001 125.05 54.1001 126.45 67.8001H137.7V76.8001H126.45C125.95 81.5001 124.9 86.1751 123.3 90.8251C121.7 95.4751 119.35 100 116.25 104.4ZM67.5 138V126.75C53.8 125.35 42.4 120.1 33.3 111C24.2 101.9 18.95 90.5001 17.55 76.8001H6.29999V67.8001H17.55C18.15 62.7001 19.225 57.9251 20.775 53.4751C22.325 49.0251 24.45 44.8501 27.15 40.9501L8.09999 21.9001L14.55 15.4501L128.85 129.75L122.4 136.2L103.2 117C99.2 119.9 95.025 122.1 90.675 123.6C86.325 125.1 81.6 126.15 76.5 126.75V138H67.5ZM72 117.9C76.5 117.9 80.8 117.275 84.9 116.025C89 114.775 92.9 112.95 96.6 110.55L33.75 47.7001C31.45 51.2001 29.65 54.9751 28.35 59.0251C27.05 63.0751 26.4 67.5001 26.4 72.3001C26.4 84.8001 30.875 95.5251 39.825 104.475C48.775 113.425 59.5 117.9 72 117.9Z" fill="white"/>
        </g>
    </g>
    <defs>
        <clipPath id="clip0_400_975">
            <rect width="144" height="144" fill="white"/>
        </clipPath>
    </defs>
</svg>

<svg xmlns="http://www.w3.org/2000/svg" width="144" height="144" fill="none" viewBox="0 0 144 144"><g clip-path="url(#a)"><path fill="#fff" d="m116.25 104.4-6.6-6.5999q3.6-5.25 5.775-11.775t2.175-13.725q0-18.75-13.425-32.175T72 26.7001q-6.9 0-13.725 2.175T46.5 34.6501l-6.45-6.45q5.4-4.5 12.825-7.05t14.625-3.3v-11.25h9v11.25q20.55 2.1 34.2 15.75t15.75 34.2h11.25v9h-11.25q-.75 7.05-3.15 14.025T116.25 104.4M67.5 138v-11.25q-20.55-2.1-34.2-15.75T17.55 76.8001H6.3v-9h11.25q.9-7.65 3.225-14.325t6.375-12.525L8.1 21.9001l6.45-6.45L128.85 129.75l-6.45 6.45-19.2-19.2q-6 4.35-12.525 6.6T76.5 126.75V138zm4.5-20.1q6.75 0 12.9-1.875t11.7-5.475L33.75 47.7001q-3.45 5.25-5.4 11.325t-1.95 13.275q0 18.75 13.425 32.1749T72 117.9"/></g><defs><clipPath id="a"><path fill="#fff" d="M0 0h144v144H0z"/></clipPath></defs></svg>
